X:1
T:Canaan
T:D minor                              Jeremiah Ingalls, 1805
T:Anonymous author, first published in Ingalls 1805            11 9. 11 9. 87.
T:Transcribed from  Ingalls' Christian Harmony , 1805 ; Counter by B. C. Johnston, 2019..
%%score [ 1 2 3 4 ]
L:1/8
Q:1/4=100
M:4/4
K:Eb
V:1 treble nm="Tr." snm="Tr."
V:2 treble nm="C." snm="C."
V:3 treble-8 nm="T." snm="T."
V:4 bass nm="B." snm="B."
V:1
"_1. Come  all   ye  dear souls, who  are    of   Adam’s   loin,   Join  with   me   for    to   seek   sal   –   va       –      tion;    With  hearts full  of    friendship  let  us  all   com –" c4 | %1
 e2 f e d2 c =B | c2 d c =B2 G G | G2 G c e2 =B2 | cded c4 | c4 e2 f e | d2 c B c2 d c | %7
"_1. –bine, And seek for the good  land  of  Ca      –        naan.       Ca – na– an,  Ca –  na – an,    my  hap– py  home,  O ______    how    I         long  for      Ca –  na – an." =B2 G G G2 G c | %8
 e2 =B2 cded | c6 z2 |: G G c2 G G =B2 | EG G B B4 | BcBA G2 c2 | d2 ec =B3 c | c8 :| %15
V:2
"_2. We've   a      lit  – tle   sis  – ter,   late – ly   con–ver–ted,      She brings  to    us   good  news  from  Ca      –     naan,     Her  soul's filled with   Jesus,  the  world  de – ser –\n3.  So    once   I   did  mourn,  but  O!   now   I   can  sing,     And will praise my  great  Lord   and    Sa      –      vior;     And  when  in    the     realms  of   my     heavenly" G4 | %1
 E2 D E G2 G F | E2 D E D2 G E | C2 D/E/ F E2 D2 | EDCD C4 | C4 E2 D E | G2 G F E2 D E | %7
"_2. –ted, And now she lives shouting  and prai     –       sing.        Ca – na– an,  Ca –  na – an,    my  hap– py  home,  O ______    how    I         long  for      Ca –  na – an.\n3. King,  I will shout, and  will  sing  for  –  ev       –      er.          Ca – na– an,  Ca –  na – an,    my  hap– py  home,  O ______   when  shall      I    see       Ca –  na – an." D2 G E C2 D/E/ F | %8
 E2 D2 EDCD | C6 z2 |: G F G2 E E D2 | G2 G E F4 | GFEF G2 GF | G2 EC G3 G | G8 :| %15
V:3
"_4.  But   see   the  poor   sinners,   that   stand  at  the   bar,    And  des –pair    of     the  hope  of      hea      –      ven;      They  tremble  and    shi – ver   in   dole –ful  des –\n5. Come  all  my  dear  brethren,   let      us      travel     on,    Let    us     go      to      the  land  of       Ca      –      naan;     And  when all our    pil –gri–mage  journey   is" G4 | %1
 c2 d c =B2 c d | e2 f e d2 c =B | c2 d/e/ f g2 d2 | cdcB G4 | G4 c2 d c | =B2 c d e2 f e | %7
"_4. –pair, And from God’s awful presence  dri        –       ven.       Ca – na– an,  Ca –  na – an,    my  hap– py  home,  O ______    how    I         long  for      Ca –  na – an.\n5. done, Then we'll shout and we’ll sing sal – va    –      tion.       Ca – na –an,  Ca – na –  an,    my  hap– py  home,  O ______   how   we'll   shout  for      Ca –  na – an." d2 c =B c2 d/e/ f | %8
 g2 d2 cdcB | G6 z2 |: E F G2 e e d2 | cG G E F4 | GAGF EF GA | =B2 c/B/A G3 E | C8 :| %15
V:4
 C,4 | C,2 B,, C, G,2 G, F, | E,2 D, C, G,2 G, G, | C,2 G, F, E,2 G,2 | C,4 C,4 | C,4 C,2 B,, C, | %6
 G,2 G, F, E,2 D, C, | %7
"_____________________________________________________\nEdited by B. C. Johnston, 2019\n   1. Whole piece transposed down from D minor to C minor.\n   2. Counter part written." G,2 G, G, C,2 G, F, | %8
 E,2 G,2 C,4 | C,6 z2 |: C, C, E,2 C, C, G,2 | E,2 E, E, B,,4 | (E,3 D,) C,D, E,F, | %13
 G,2 C,2 G,,3 G,, | C,8 :| %15

